X:1

T: The Road to Abbeyfeale

C: M. Mulvihill

Q: 325

R: jig

Z:Transcribed by Bill Black

M: 6/8

L: 1/8

K: G

B/c/ | d^cd gdB | cAG FGA | d^cd gdB | cAB c2 c |

d^cd gdB | cAG FGA | def gdB | cAF G2 :|

B/c/ | dgg dgg | fdc ABc | dgg dgg | fdB c2 c |

dgg dgg | fdc ABc | d^cd gdB | cAF G2 :|

           

ROAD TO ALSTON. English. From the title, perhaps a Cumbrian tune.

                       

ROAD TO ARISAIG. See "Fight About the Fireside."

                       

ROAD TO ATHLONE, THE (An Botar Go At-Luain). Irish, Slip Jig. F Major/D Minor. Standard. AABB. O'Neill (Krassen), 1976; pg. 87. O'Neill (Music of Ireland: 1850 Melodies), 1979; No. 1170, pg. 220.

